Numix/48x48/categories/applications-boardgames.svg

<?xml version="1.0" encoding="UTF-8" standalone="no"?>
<svg
   xmlns:dc="http://purl.org/dc/elements/1.1/"
   xmlns:cc="http://creativecommons.org/ns#"
   xmlns:rdf="http://www.w3.org/1999/02/22-rdf-syntax-ns#"
   xmlns:svg="http://www.w3.org/2000/svg"
   xmlns="http://www.w3.org/2000/svg"
   xmlns:sodipodi="http://sodipodi.sourceforge.net/DTD/sodipodi-0.dtd"
   xmlns:inkscape="http://www.inkscape.org/namespaces/inkscape"
   width="48"
   height="48"
   viewBox="0 0 38.4 38.4"
   id="svg2"
   version="1.1"
   inkscape:version="0.91 r"
   sodipodi:docname="applications-boardgames.svg">
  <metadata
     id="metadata20">
    <rdf:RDF>
      <cc:Work
         rdf:about="">
        <dc:format>image/svg+xml</dc:format>
        <dc:type
           rdf:resource="http://purl.org/dc/dcmitype/StillImage" />
        <dc:title />
      </cc:Work>
    </rdf:RDF>
  </metadata>
  <defs
     id="defs18" />
  <sodipodi:namedview
     pagecolor="#ffffff"
     bordercolor="#666666"
     borderopacity="1"
     objecttolerance="10"
     gridtolerance="10"
     guidetolerance="10"
     inkscape:pageopacity="0"
     inkscape:pageshadow="2"
     inkscape:window-width="1920"
     inkscape:window-height="1056"
     id="namedview16"
     showgrid="true"
     showguides="false"
     inkscape:zoom="7.0264084"
     inkscape:cx="-25.478571"
     inkscape:cy="39.991463"
     inkscape:window-x="0"
     inkscape:window-y="24"
     inkscape:window-maximized="1"
     inkscape:current-layer="svg2">
    <inkscape:grid
       type="xygrid"
       id="grid4148" />
  </sodipodi:namedview>
  <g
     style="stroke:#ff4545;stroke-width:1.55517077;stroke-miterlimit:4;stroke-dasharray:none"
     id="g6"
     transform="matrix(1.0268167,0,0,1.030839,-0.86337351,-0.38627079)">
    <path
       inkscape:connector-curvature="0"
       id="path8"
       transform="scale(0.14844,0.14844)"
       d="m 65.105263,39.131579 133.052627,0 c 12.55264,0 22.71053,10.157895 22.71053,22.710526 l 0,132.315785 c 0,12.52632 -10.15789,22.71053 -22.71053,22.71053 l -133.052627,0 c -12.526316,0 -22.710526,-10.18421 -22.710526,-22.71053 l 0,-132.315785 c 0,-12.552631 10.18421,-22.710526 22.710526,-22.710526 z"
       style="fill:none;stroke-width:10.47676373;stroke-miterlimit:4;stroke-dasharray:none" />
  </g>
  <g
     id="g4192">
    <circle
       r="2.8"
       cy="11.6"
       cx="26.799999"
       id="path4151"
       style="opacity:1;fill:#ff4545;fill-opacity:1;fill-rule:nonzero;stroke:none;stroke-width:1.20000005;stroke-linecap:square;stroke-linejoin:miter;stroke-miterlimit:4;stroke-dasharray:none;stroke-dashoffset:0;stroke-opacity:1" />
    <circle
       r="2.8"
       cy="11.6"
       cx="19.200001"
       id="path4151-6"
       style="opacity:1;fill:#ff4545;fill-opacity:1;fill-rule:nonzero;stroke:none;stroke-width:1.20000005;stroke-linecap:square;stroke-linejoin:miter;stroke-miterlimit:4;stroke-dasharray:none;stroke-dashoffset:0;stroke-opacity:1" />
    <circle
       r="2.8"
       cy="11.6"
       cx="11.6"
       id="path4151-64"
       style="opacity:1;fill:#ff4545;fill-opacity:1;fill-rule:nonzero;stroke:none;stroke-width:1.20000005;stroke-linecap:square;stroke-linejoin:miter;stroke-miterlimit:4;stroke-dasharray:none;stroke-dashoffset:0;stroke-opacity:1" />
  </g>
  <g
     transform="translate(-4.2915344e-7,15.2)"
     id="g4192-0">
    <circle
       r="2.8"
       cy="11.6"
       cx="26.799999"
       id="path4151-0"
       style="opacity:1;fill:#ff4545;fill-opacity:1;fill-rule:nonzero;stroke:none;stroke-width:1.20000005;stroke-linecap:square;stroke-linejoin:miter;stroke-miterlimit:4;stroke-dasharray:none;stroke-dashoffset:0;stroke-opacity:1" />
    <circle
       r="2.8"
       cy="11.6"
       cx="19.200001"
       id="path4151-6-4"
       style="opacity:1;fill:#ff4545;fill-opacity:1;fill-rule:nonzero;stroke:none;stroke-width:1.20000005;stroke-linecap:square;stroke-linejoin:miter;stroke-miterlimit:4;stroke-dasharray:none;stroke-dashoffset:0;stroke-opacity:1" />
    <circle
       r="2.8"
       cy="11.6"
       cx="11.6"
       id="path4151-64-4"
       style="opacity:1;fill:#ff4545;fill-opacity:1;fill-rule:nonzero;stroke:none;stroke-width:1.20000005;stroke-linecap:square;stroke-linejoin:miter;stroke-miterlimit:4;stroke-dasharray:none;stroke-dashoffset:0;stroke-opacity:1" />
  </g>
</svg>

<svg width="47.5" xmlns="http://www.w3.org/2000/svg" height="47.5" viewBox="0 0 38 38" xmlns:xlink="http://www.w3.org/1999/xlink">
<g style="stroke:#ff4545">
<g>
<path style="fill:none;stroke-width:8" d="M 65.105263 39.131579 L 198.157895 39.131579 C 210.710526 39.131579 220.868421 49.289474 220.868421 61.842105 L 220.868421 194.157895 C 220.868421 206.684211 210.710526 216.868421 198.157895 216.868421 L 65.105263 216.868421 C 52.578947 216.868421 42.394737 206.684211 42.394737 194.157895 L 42.394737 61.842105 C 42.394737 49.289474 52.578947 39.131579 65.105263 39.131579 Z " transform="scale(.14844)"/>
</g>
<g style="stroke-dasharray:0,159;stroke-linecap:round">
<path style="stroke-width:119" d="M 436.962653 117.014821 L -0.01181 117.014821 M 436.962653 439.986881 L -0.01181 439.986881 " transform="matrix(.04816 0 0 .04797 6.12557 5.64099)"/>
<path style="stroke-width:109" d="M 436.962653 117.014821 L -0.01181 117.014821 M 436.962653 439.986881 L -0.01181 439.986881 " transform="matrix(.04816 0 0 .04797 6.12557 5.64099)"/>
</g>
</g>
</svg>
